!!!OTL: NE SIDEN SCHNOR GEIT UEMME DAT HUS
!!!ARE: Europa, Mitteleuropa, Deutschland, Westfalen
!!!SCT: E1184
!!!YEM: Copyright 1995, estate of Helmut Schaffrath.
**kern
*ICvox
*Ivox
*M2/4
*k[f#]
*G:
{8b
=1
8a
8g
8f#
8e
=2
8d
8d
8d}
{8b
=3
8a
8g
8f#
8e
=4
8d
8d
8d
8r}
=5
{8f#
8g
4a
=6
8b
8a
8g
8f#
=7
4g
8r}
==
!!!AGN: Ansinge -, Brauchtums - Lied, Kirchen - Fest, Silvester, Neujahr
!!!ONB: ESAC (Essen Associative Code) Database: ERK3
!!!AMT: simple duple
!!!AIN: vox
!!!EED: Helmut Schaffrath
!!!EEV: 1.0
*-
